exports/total-affected-by-natural-disasters_v1_850x600.svg

<svg xmlns="http://www.w3.org/2000/svg" version="1.1" style="background-color:#fff;-webkit-font-smoothing:antialiased" width="850" height="600" font-family="'Helvetica Neue',Helvetica,Arial,sans-serif" font-size="18" text-rendering="optimizeLegibility"><g class="ChartTab"><g class="HeaderView"><g opacity=".8" transform="matrix(.31 0 0 .31 770 15)"><a xmlns:xlink="http://www.w3.org/1999/xlink" xlink:href="https://ourworldindata.org" target="_blank"><g><path fill="#1B2543" d="M0 0h211.2v130.1H0z"/><path fill="#E63912" d="M0 112.2h211.2v17.9H0z"/><g><path fill="none" d="M1.2 12.3h210.2v99.2H1.2z"/><path fill="#FFF" d="M37.8 32.2c0 12.7-7.7 19.4-17.1 19.4-9.7 0-16.6-7.5-16.6-18.7 0-11.7 7.3-19.3 17.1-19.3 10.1.1 16.6 7.7 16.6 18.6zm-28.6.6c0 7.9 4.3 14.9 11.8 14.9 7.5 0 11.8-6.9 11.8-15.3 0-7.3-3.8-14.9-11.8-14.9-7.9 0-11.8 7.3-11.8 15.3zM62.7 43.8c0 2.7.1 5.1.2 7.2h-4.3l-.3-4.3h-.1c-1.3 2.1-4 4.9-8.8 4.9-4.2 0-9.1-2.3-9.1-11.6V24.6h4.8v14.6c0 5 1.5 8.4 5.9 8.4 3.2 0 5.5-2.2 6.3-4.4.3-.7.4-1.6.4-2.5V24.6h4.8v19.2zM67.3 32.8c0-3.1-.1-5.8-.2-8.2h4.2l.2 5.2h.2c1.2-3.5 4.1-5.8 7.3-5.8.5 0 .9.1 1.4.2v4.5c-.5-.1-1-.2-1.6-.2-3.4 0-5.8 2.6-6.5 6.2-.1.7-.2 1.4-.2 2.2V51h-4.8V32.8zM95.4 51L86 14.2h5l4.4 18.6c1.1 4.6 2.1 9.2 2.7 12.7h.1c.6-3.7 1.8-8 3-12.8l4.9-18.5h5l4.5 18.7c1 4.4 2 8.7 2.6 12.6h.1c.8-4 1.8-8.1 3-12.7l4.9-18.5h4.9L120.6 51h-5L111 31.9c-1.1-4.7-1.9-8.3-2.4-12h-.1c-.7 3.7-1.5 7.3-2.8 12L100.4 51h-5zM154.9 37.6c0 9.8-6.8 14-13.2 14-7.2 0-12.7-5.2-12.7-13.6 0-8.8 5.8-14 13.1-14 7.7 0 12.8 5.5 12.8 13.6zm-21 .3c0 5.8 3.3 10.1 8 10.1 4.6 0 8-4.3 8-10.3 0-4.5-2.2-10.1-7.9-10.1s-8.1 5.2-8.1 10.3zM158.2 32.8c0-3.1-.1-5.8-.2-8.2h4.2l.2 5.2h.2c1.2-3.5 4.1-5.8 7.3-5.8.5 0 .9.1 1.4.2v4.5c-.5-.1-1-.2-1.6-.2-3.4 0-5.8 2.6-6.5 6.2-.1.7-.2 1.4-.2 2.2V51h-4.8V32.8zM173.5 12.3h4.8V51h-4.8V12.3zM206.5 12.3v31.9c0 2.3.1 5 .2 6.8h-4.3l-.2-4.6h-.2c-1.5 2.9-4.7 5.2-9 5.2-6.4 0-11.3-5.4-11.3-13.4-.1-8.8 5.4-14.2 11.9-14.2 4 0 6.8 1.9 8 4h.1V12.3h4.8zm-4.8 23.1c0-.6-.1-1.4-.2-2a7 7 0 00-6.9-5.6c-5 0-7.9 4.4-7.9 10.2 0 5.3 2.6 9.8 7.8 9.8 3.2 0 6.2-2.1 7.1-5.7.2-.7.2-1.3.2-2.1v-4.6zM42.8 64c.1 1.6-1.1 2.9-3.1 2.9-1.7 0-2.9-1.3-2.9-2.9 0-1.7 1.3-3 3-3 1.9 0 3 1.3 3 3zm-5.4 33.8V71.4h4.8v26.4h-4.8zM47.5 78.6c0-2.7-.1-5-.2-7.1h4.3l.3 4.4h.1c1.3-2.5 4.4-5 8.8-5 3.7 0 9.4 2.2 9.4 11.2v15.8h-4.8V82.6c0-4.3-1.6-7.8-6.1-7.8-3.2 0-5.6 2.2-6.5 4.9-.2.6-.3 1.4-.3 2.2v15.9h-4.8V78.6zM84 61.6c2.9-.4 6.3-.8 10.1-.8 6.8 0 11.7 1.6 14.9 4.6 3.3 3 5.2 7.3 5.2 13.2 0 6-1.9 10.9-5.3 14.3-3.4 3.4-9.1 5.3-16.3 5.3-3.4 0-6.2-.2-8.6-.4V61.6zm4.8 32.5c1.2.2 3 .3 4.8.3 10.2 0 15.7-5.7 15.7-15.6.1-8.7-4.9-14.2-14.9-14.2-2.5 0-4.3.2-5.6.5v29zM132.1 97.8l-.4-3.3h-.2a9.79 9.79 0 01-8.1 3.9c-5.4 0-8.1-3.8-8.1-7.6 0-6.4 5.7-9.9 15.9-9.8v-.5c0-2.2-.6-6.1-6-6.1-2.5 0-5 .8-6.9 2l-1.1-3.2c2.2-1.4 5.4-2.3 8.7-2.3 8.1 0 10.1 5.5 10.1 10.8v9.9c0 2.3.1 4.5.4 6.3h-4.3zm-.7-13.4c-5.3-.1-11.2.8-11.2 5.9 0 3.1 2.1 4.6 4.5 4.6 3.4 0 5.6-2.2 6.4-4.4.2-.5.3-1 .3-1.5v-4.6zM146.6 63.9v7.6h6.9v3.7h-6.9v14.2c0 3.3.9 5.1 3.6 5.1 1.3 0 2.2-.2 2.8-.3l.2 3.6c-.9.4-2.4.7-4.3.7-2.2 0-4-.7-5.2-2-1.4-1.4-1.9-3.8-1.9-6.9V75.1h-4.1v-3.7h4.1v-6.3l4.8-1.2zM171.4 97.8l-.4-3.3h-.2a9.79 9.79 0 01-8.1 3.9c-5.4 0-8.1-3.8-8.1-7.6 0-6.4 5.7-9.9 15.9-9.8v-.5c0-2.2-.6-6.1-6-6.1-2.5 0-5 .8-6.9 2l-1.1-3.2c2.2-1.4 5.4-2.3 8.7-2.3 8.1 0 10.1 5.5 10.1 10.8v9.9c0 2.3.1 4.5.4 6.3h-4.3zm-.7-13.4c-5.3-.1-11.2.8-11.2 5.9 0 3.1 2.1 4.6 4.5 4.6 3.4 0 5.6-2.2 6.4-4.4.2-.5.3-1 .3-1.5v-4.6z"/></g></g></a></g><a href="https://ourworldindata.org/grapher/total-affected-by-natural-disasters" target="_blank"><text font-size="26.1" x="15" y="35.9" fill="#555"><tspan x="15" y="35.88">Total number affected by natural disasters, All natural disasters</tspan></text></a><text font-size="14.4" x="15" y="54.6" fill="#666"><tspan x="15" y="54.62">Global total number of people affected by natural disasters. This is defined as the sum of the injured, affected and</tspan><tspan x="15" y="70.46">those left homeless after a disaster.</tspan></text></g><g class="LineChart"><defs><clipPath id="a"><path d="M87.6 0h830v897.8h-830z"/></clipPath></defs><g class="AxisBoxView"><g class="HorizontalAxis" fill="#666" text-anchor="middle" font-size="16.2"><text x="97.6" y="541.9">1903</text><text x="185" y="541.9">1920</text><text x="287.9" y="541.9">1940</text><text x="390.8" y="541.9">1960</text><text x="493.7" y="541.9">1980</text><text x="596.6" y="541.9">2000</text><text x="684" y="541.9">2017</text></g><g class="VerticalAxis" fill="#666" dominant-baseline="middle" text-anchor="end" font-size="16.2"><text x="92.6" y="455.8">100 million</text><text x="92.6" y="390.9">200 million</text><text x="92.6" y="326.1">300 million</text><text x="92.6" y="261.2">400 million</text><text x="92.6" y="196.3">500 million</text><text x="92.6" y="131.4">600 million</text></g><g class="AxisGridLines" stroke="#ddd" stroke-dasharray="3,2"><path d="M97.6 455.8H684M97.6 390.9H684M97.6 326.1H684M97.6 261.2H684M97.6 196.3H684M97.6 131.4H684"/></g><g class="AxisGridLines" stroke="#ddd" stroke-dasharray="3,2"><path d="M185 520.7V93M287.9 520.7V93M390.8 520.7V93M493.7 520.7V93M596.6 520.7V93"/></g></g><g clip-path="url(#a)"><g class="HeightedLegend clickable"><g class="legendMark"><path fill="#3360a9" d="M694 459.25h10v2.5h-10z"/><text font-size="14.4" x="709" y="464.8" fill="#333"><tspan x="709" y="464.82">All natural disasters</tspan></text></g></g><g class="Lines"><g class="key-All-natural-disasters_0"><path stroke="#3360a9" stroke-linecap="round" d="M98 521h56l5-2 11 1 5-1 10-11 5 10 5 3 6-12 5 11 10 1h31l5-3 5 3 5-7 5 7h42l5-1 5 1 10-1 5 1 5-7 6 6h5l5-1 5 1 5 1 5-1h5l6 1 5-1 5-1 5 1 5 1 5-4 5-1 6-75 5 72 5 3 5-13 5 10 5-23 5 23 6-134 5 134 5-21 5 3 5 10 5-2 5-18 6-4 5-9 5 28 5-77 5 29 5 27 5 24 6-3 5-222 5 109 5 22 5 57 5-131 5 141 6-67 5-66 5 33 5 2 5 97 5-177 5 40 6 70 5 42 5-357 5 262 5 61 5 1 5 22 6-56 5-6 5 13 5-38 5 31 5 65 5 10 6-29 5-190 5 151 5 71" fill="none" stroke-width="1.5"/><g fill="#3360a9"><circle cx="98" cy="521" r="2"/><circle cx="108" cy="521" r="2"/><circle cx="118" cy="521" r="2"/><circle cx="123" cy="521" r="2"/><circle cx="134" cy="521" r="2"/><circle cx="139" cy="521" r="2"/><circle cx="144" cy="521" r="2"/><circle cx="154" cy="521" r="2"/><circle cx="159" cy="519" r="2"/><circle cx="170" cy="520" r="2"/><circle cx="175" cy="519" r="2"/><circle cx="185" cy="508" r="2"/><circle cx="190" cy="518" r="2"/><circle cx="195" cy="521" r="2"/><circle cx="201" cy="509" r="2"/><circle cx="206" cy="520" r="2"/><circle cx="216" cy="521" r="2"/><circle cx="221" cy="521" r="2"/><circle cx="226" cy="521" r="2"/><circle cx="231" cy="521" r="2"/><circle cx="237" cy="521" r="2"/><circle cx="242" cy="521" r="2"/><circle cx="247" cy="521" r="2"/><circle cx="252" cy="518" r="2"/><circle cx="257" cy="521" r="2"/><circle cx="262" cy="514" r="2"/><circle cx="267" cy="521" r="2"/><circle cx="273" cy="521" r="2"/><circle cx="278" cy="521" r="2"/><circle cx="283" cy="521" r="2"/><circle cx="288" cy="521" r="2"/><circle cx="298" cy="521" r="2"/><circle cx="303" cy="521" r="2"/><circle cx="309" cy="521" r="2"/><circle cx="314" cy="520" r="2"/><circle cx="319" cy="521" r="2"/><circle cx="329" cy="520" r="2"/><circle cx="334" cy="521" r="2"/><circle cx="339" cy="514" r="2"/><circle cx="345" cy="520" r="2"/><circle cx="350" cy="520" r="2"/><circle cx="355" cy="519" r="2"/><circle cx="360" cy="520" r="2"/><circle cx="365" cy="521" r="2"/><circle cx="370" cy="520" r="2"/><circle cx="375" cy="520" r="2"/><circle cx="381" cy="521" r="2"/><circle cx="386" cy="520" r="2"/><circle cx="391" cy="519" r="2"/><circle cx="396" cy="520" r="2"/><circle cx="401" cy="521" r="2"/><circle cx="406" cy="517" r="2"/><circle cx="411" cy="516" r="2"/><circle cx="417" cy="441" r="2"/><circle cx="422" cy="513" r="2"/><circle cx="427" cy="516" r="2"/><circle cx="432" cy="503" r="2"/><circle cx="437" cy="513" r="2"/><circle cx="442" cy="490" r="2"/><circle cx="447" cy="513" r="2"/><circle cx="453" cy="379" r="2"/><circle cx="458" cy="513" r="2"/><circle cx="463" cy="492" r="2"/><circle cx="468" cy="495" r="2"/><circle cx="473" cy="505" r="2"/><circle cx="478" cy="503" r="2"/><circle cx="483" cy="485" r="2"/><circle cx="489" cy="481" r="2"/><circle cx="494" cy="472" r="2"/><circle cx="499" cy="500" r="2"/><circle cx="504" cy="423" r="2"/><circle cx="509" cy="452" r="2"/><circle cx="514" cy="479" r="2"/><circle cx="519" cy="503" r="2"/><circle cx="525" cy="500" r="2"/><circle cx="530" cy="278" r="2"/><circle cx="535" cy="387" r="2"/><circle cx="540" cy="409" r="2"/><circle cx="545" cy="466" r="2"/><circle cx="550" cy="335" r="2"/><circle cx="555" cy="476" r="2"/><circle cx="561" cy="409" r="2"/><circle cx="566" cy="343" r="2"/><circle cx="571" cy="376" r="2"/><circle cx="576" cy="378" r="2"/><circle cx="581" cy="475" r="2"/><circle cx="586" cy="298" r="2"/><circle cx="591" cy="338" r="2"/><circle cx="597" cy="408" r="2"/><circle cx="602" cy="450" r="2"/><circle cx="607" cy="93" r="2"/><circle cx="612" cy="355" r="2"/><circle cx="617" cy="416" r="2"/><circle cx="622" cy="417" r="2"/><circle cx="627" cy="439" r="2"/><circle cx="633" cy="383" r="2"/><circle cx="638" cy="377" r="2"/><circle cx="643" cy="390" r="2"/><circle cx="648" cy="352" r="2"/><circle cx="653" cy="383" r="2"/><circle cx="658" cy="448" r="2"/><circle cx="663" cy="458" r="2"/><circle cx="669" cy="429" r="2"/><circle cx="674" cy="239" r="2"/><circle cx="679" cy="390" r="2"/><circle cx="684" cy="461" r="2"/></g></g></g></g></g><g class="SourcesFooter" fill="#777"><g class="clickable" fill="#777"><text font-size="12.6" x="15" y="567"><tspan x="15" y="566.98">Source: EMDAT (2017): OFDA/CRED International Disaster Database, Université catholique de Louvain – Brussels – Belgium</tspan></text></g><text font-size="12.6" x="15" y="582.5"><tspan x="15" y="582.48"><a target="_blank" href="https://ourworldindata.org/natural-catastrophes/" fill="#777">OurWorldInData.org/natural-catastrophes/</a> • <a href="http://creativecommons.org/licenses/by-sa/4.0/deed.en_US" target="_blank" fill="#777">CC BY-SA</a></tspan></text></g></g></svg>

<svg xmlns="http://www.w3.org/2000/svg" version="1.1" style="font-family: 'Helvetica Neue', Helvetica, Arial, sans-serif; font-size: 18px; background-color: white; text-rendering: optimizeLegibility; -webkit-font-smoothing: antialiased;" width="850" height="600"><g class="ChartTab"><g class="HeaderView"><g opacity="0.8" transform="translate(770, 15) scale(0.31)"><a xmlns:xlink="http://www.w3.org/1999/xlink" xlink:href="https://ourworldindata.org" target="_blank"><g><rect x="0" y="0" fill="#1B2543" width="211.2" height="130.1"/><rect x="0" y="112.2" fill="#E63912" width="211.2" height="17.9"/><g><rect x="1.2" y="12.3" fill="none" width="210.2" height="99.2"/><path fill="#FFFFFF" d="M37.8,32.2c0,12.7-7.7,19.4-17.1,19.4c-9.7,0-16.6-7.5-16.6-18.7c0-11.7,7.3-19.3,17.1-19.3 C31.3,13.7,37.8,21.3,37.8,32.2z M9.2,32.8c0,7.9,4.3,14.9,11.8,14.9c7.5,0,11.8-6.9,11.8-15.3c0-7.3-3.8-14.9-11.8-14.9 C13.1,17.5,9.2,24.8,9.2,32.8z"/><path fill="#FFFFFF" d="M62.7,43.8c0,2.7,0.1,5.1,0.2,7.2h-4.3l-0.3-4.3h-0.1c-1.3,2.1-4,4.9-8.8,4.9c-4.2,0-9.1-2.3-9.1-11.6 V24.6h4.8v14.6c0,5,1.5,8.4,5.9,8.4c3.2,0,5.5-2.2,6.3-4.4c0.3-0.7,0.4-1.6,0.4-2.5V24.6h4.8V43.8z"/><path fill="#FFFFFF" d="M67.3,32.8c0-3.1-0.1-5.8-0.2-8.2h4.2l0.2,5.2h0.2c1.2-3.5,4.1-5.8,7.3-5.8c0.5,0,0.9,0.1,1.4,0.2v4.5 c-0.5-0.1-1-0.2-1.6-0.2c-3.4,0-5.8,2.6-6.5,6.2c-0.1,0.7-0.2,1.4-0.2,2.2V51h-4.8V32.8z"/><path fill="#FFFFFF" d="M95.4,51l-9.4-36.8h5l4.4,18.6c1.1,4.6,2.1,9.2,2.7,12.7h0.1c0.6-3.7,1.8-8,3-12.8l4.9-18.5h5l4.5,18.7 c1,4.4,2,8.7,2.6,12.6h0.1c0.8-4,1.8-8.1,3-12.7l4.9-18.5h4.9L120.6,51h-5L111,31.9c-1.1-4.7-1.9-8.3-2.4-12h-0.1 c-0.7,3.7-1.5,7.3-2.8,12L100.4,51H95.4z"/><path fill="#FFFFFF" d="M154.9,37.6c0,9.8-6.8,14-13.2,14c-7.2,0-12.7-5.2-12.7-13.6c0-8.8,5.8-14,13.1-14 C149.8,24,154.9,29.5,154.9,37.6z M133.9,37.9c0,5.8,3.3,10.1,8,10.1c4.6,0,8-4.3,8-10.3c0-4.5-2.2-10.1-7.9-10.1 C136.3,27.6,133.9,32.8,133.9,37.9z"/><path fill="#FFFFFF" d="M158.2,32.8c0-3.1-0.1-5.8-0.2-8.2h4.2l0.2,5.2h0.2c1.2-3.5,4.1-5.8,7.3-5.8c0.5,0,0.9,0.1,1.4,0.2v4.5 c-0.5-0.1-1-0.2-1.6-0.2c-3.4,0-5.8,2.6-6.5,6.2c-0.1,0.7-0.2,1.4-0.2,2.2V51h-4.8V32.8z"/><path fill="#FFFFFF" d="M173.5,12.3h4.8V51h-4.8V12.3z"/><path fill="#FFFFFF" d="M206.5,12.3v31.9c0,2.3,0.1,5,0.2,6.8h-4.3l-0.2-4.6H202c-1.5,2.9-4.7,5.2-9,5.2 c-6.4,0-11.3-5.4-11.3-13.4c-0.1-8.8,5.4-14.2,11.9-14.2c4,0,6.8,1.9,8,4h0.1V12.3H206.5z M201.7,35.4c0-0.6-0.1-1.4-0.2-2 c-0.7-3.1-3.3-5.6-6.9-5.6c-5,0-7.9,4.4-7.9,10.2c0,5.3,2.6,9.8,7.8,9.8c3.2,0,6.2-2.1,7.1-5.7c0.2-0.7,0.2-1.3,0.2-2.1V35.4z"/><path fill="#FFFFFF" d="M42.8,64c0.1,1.6-1.1,2.9-3.1,2.9c-1.7,0-2.9-1.3-2.9-2.9c0-1.7,1.3-3,3-3C41.7,61,42.8,62.3,42.8,64z M37.4,97.8V71.4h4.8v26.4H37.4z"/><path fill="#FFFFFF" d="M47.5,78.6c0-2.7-0.1-5-0.2-7.1h4.3l0.3,4.4h0.1c1.3-2.5,4.4-5,8.8-5c3.7,0,9.4,2.2,9.4,11.2v15.8h-4.8 V82.6c0-4.3-1.6-7.8-6.1-7.8c-3.2,0-5.6,2.2-6.5,4.9c-0.2,0.6-0.3,1.4-0.3,2.2v15.9h-4.8V78.6z"/><path fill="#FFFFFF" d="M84,61.6c2.9-0.4,6.3-0.8,10.1-0.8c6.8,0,11.7,1.6,14.9,4.6c3.3,3,5.2,7.3,5.2,13.2c0,6-1.9,10.9-5.3,14.3 c-3.4,3.4-9.1,5.3-16.3,5.3c-3.4,0-6.2-0.2-8.6-0.4V61.6z M88.8,94.1c1.2,0.2,3,0.3,4.8,0.3c10.2,0,15.7-5.7,15.7-15.6 c0.1-8.7-4.9-14.2-14.9-14.2c-2.5,0-4.3,0.2-5.6,0.5V94.1z"/><path fill="#FFFFFF" d="M132.1,97.8l-0.4-3.3h-0.2c-1.5,2.1-4.3,3.9-8.1,3.9c-5.4,0-8.1-3.8-8.1-7.6c0-6.4,5.7-9.9,15.9-9.8v-0.5 c0-2.2-0.6-6.1-6-6.1c-2.5,0-5,0.8-6.9,2l-1.1-3.2c2.2-1.4,5.4-2.3,8.7-2.3c8.1,0,10.1,5.5,10.1,10.8v9.9c0,2.3,0.1,4.5,0.4,6.3 H132.1z M131.4,84.4c-5.3-0.1-11.2,0.8-11.2,5.9c0,3.1,2.1,4.6,4.5,4.6c3.4,0,5.6-2.2,6.4-4.4c0.2-0.5,0.3-1,0.3-1.5V84.4z"/><path fill="#FFFFFF" d="M146.6,63.9v7.6h6.9v3.7h-6.9v14.2c0,3.3,0.9,5.1,3.6,5.1c1.3,0,2.2-0.2,2.8-0.3l0.2,3.6 c-0.9,0.4-2.4,0.7-4.3,0.7c-2.2,0-4-0.7-5.2-2c-1.4-1.4-1.9-3.8-1.9-6.9V75.1h-4.1v-3.7h4.1v-6.3L146.6,63.9z"/><path fill="#FFFFFF" d="M171.4,97.8l-0.4-3.3h-0.2c-1.5,2.1-4.3,3.9-8.1,3.9c-5.4,0-8.1-3.8-8.1-7.6c0-6.4,5.7-9.9,15.9-9.8v-0.5 c0-2.2-0.6-6.1-6-6.1c-2.5,0-5,0.8-6.9,2l-1.1-3.2c2.2-1.4,5.4-2.3,8.7-2.3c8.1,0,10.1,5.5,10.1,10.8v9.9c0,2.3,0.1,4.5,0.4,6.3 H171.4z M170.7,84.4c-5.3-0.1-11.2,0.8-11.2,5.9c0,3.1,2.1,4.6,4.5,4.6c3.4,0,5.6-2.2,6.4-4.4c0.2-0.5,0.3-1,0.3-1.5V84.4z"/></g></g></a></g><a href="https://ourworldindata.org/grapher/total-affected-by-natural-disasters" target="_blank"><text font-size="26.10" x="15.0" y="35.9" fill="#555"><tspan x="15" y="35.879999999999995">Total number affected by natural disasters, All natural disasters</tspan></text></a><text font-size="14.40" x="15.0" y="54.6" fill="#666"><tspan x="15" y="54.61999999999999">Global total number of people affected by natural disasters. This is defined as the sum of the injured, affected and</tspan><tspan x="15" y="70.46">those left homeless after a disaster.</tspan></text></g><g class="LineChart"><defs><clipPath id="boundsClip-377"><rect x="87.598" y="0" width="830" height="897.8"></rect></clipPath></defs><g class="AxisBoxView"><g class="HorizontalAxis"><text x="97.6" y="541.9" fill="#666" text-anchor="middle" font-size="16.2">1903</text><text x="185" y="541.9" fill="#666" text-anchor="middle" font-size="16.2">1920</text><text x="287.9" y="541.9" fill="#666" text-anchor="middle" font-size="16.2">1940</text><text x="390.8" y="541.9" fill="#666" text-anchor="middle" font-size="16.2">1960</text><text x="493.7" y="541.9" fill="#666" text-anchor="middle" font-size="16.2">1980</text><text x="596.6" y="541.9" fill="#666" text-anchor="middle" font-size="16.2">2000</text><text x="684" y="541.9" fill="#666" text-anchor="middle" font-size="16.2">2017</text></g><g class="VerticalAxis"><text x="92.60" y="455.8" fill="#666" dominant-baseline="middle" text-anchor="end" font-size="16.2">100 million</text><text x="92.60" y="390.9" fill="#666" dominant-baseline="middle" text-anchor="end" font-size="16.2">200 million</text><text x="92.60" y="326.1" fill="#666" dominant-baseline="middle" text-anchor="end" font-size="16.2">300 million</text><text x="92.60" y="261.2" fill="#666" dominant-baseline="middle" text-anchor="end" font-size="16.2">400 million</text><text x="92.60" y="196.3" fill="#666" dominant-baseline="middle" text-anchor="end" font-size="16.2">500 million</text><text x="92.60" y="131.4" fill="#666" dominant-baseline="middle" text-anchor="end" font-size="16.2">600 million</text></g><g class="AxisGridLines"><line x1="97.60" y1="455.8" x2="684.00" y2="455.8" stroke="#ddd" stroke-dasharray="3,2"></line><line x1="97.60" y1="390.9" x2="684.00" y2="390.9" stroke="#ddd" stroke-dasharray="3,2"></line><line x1="97.60" y1="326.1" x2="684.00" y2="326.1" stroke="#ddd" stroke-dasharray="3,2"></line><line x1="97.60" y1="261.2" x2="684.00" y2="261.2" stroke="#ddd" stroke-dasharray="3,2"></line><line x1="97.60" y1="196.3" x2="684.00" y2="196.3" stroke="#ddd" stroke-dasharray="3,2"></line><line x1="97.60" y1="131.4" x2="684.00" y2="131.4" stroke="#ddd" stroke-dasharray="3,2"></line></g><g class="AxisGridLines"><line x1="185" y1="520.70" x2="185" y2="93.00" stroke="#ddd" stroke-dasharray="3,2"></line><line x1="287.9" y1="520.70" x2="287.9" y2="93.00" stroke="#ddd" stroke-dasharray="3,2"></line><line x1="390.8" y1="520.70" x2="390.8" y2="93.00" stroke="#ddd" stroke-dasharray="3,2"></line><line x1="493.7" y1="520.70" x2="493.7" y2="93.00" stroke="#ddd" stroke-dasharray="3,2"></line><line x1="596.6" y1="520.70" x2="596.6" y2="93.00" stroke="#ddd" stroke-dasharray="3,2"></line></g></g><g clip-path="url(#boundsClip-377)"><g class="HeightedLegend clickable"><g class="legendMark"><rect x="694" y="453.3" width="141" height="14.4" fill="#fff" opacity="0"></rect><rect x="694" y="459.25" width="10" height="2.5" fill="#3360a9"></rect><text font-size="14.40" x="709.0" y="464.8" fill="#333"><tspan x="709" y="464.82">All natural disasters</tspan></text></g></g><g class="Lines"><rect x="98" y="93" width="586" height="428" fill="rgba(255,255,255,0)" opacity="0"></rect><g class="key-All-natural-disasters_0"><path stroke="#3360a9" stroke-linecap="round" d="M98 521L108 521L118 521L123 521L134 521L139 521L144 521L154 521L159 519L170 520L175 519L185 508L190 518L195 521L201 509L206 520L216 521L221 521L226 521L231 521L237 521L242 521L247 521L252 518L257 521L262 514L267 521L273 521L278 521L283 521L288 521L298 521L303 521L309 521L314 520L319 521L329 520L334 521L339 514L345 520L350 520L355 519L360 520L365 521L370 520L375 520L381 521L386 520L391 519L396 520L401 521L406 517L411 516L417 441L422 513L427 516L432 503L437 513L442 490L447 513L453 379L458 513L463 492L468 495L473 505L478 503L483 485L489 481L494 472L499 500L504 423L509 452L514 479L519 503L525 500L530 278L535 387L540 409L545 466L550 335L555 476L561 409L566 343L571 376L576 378L581 475L586 298L591 338L597 408L602 450L607 93L612 355L617 416L622 417L627 439L633 383L638 377L643 390L648 352L653 383L658 448L663 458L669 429L674 239L679 390L684 461" fill="none" stroke-width="1.5"></path><g fill="#3360a9"><circle cx="98" cy="521" r="2"></circle><circle cx="108" cy="521" r="2"></circle><circle cx="118" cy="521" r="2"></circle><circle cx="123" cy="521" r="2"></circle><circle cx="134" cy="521" r="2"></circle><circle cx="139" cy="521" r="2"></circle><circle cx="144" cy="521" r="2"></circle><circle cx="154" cy="521" r="2"></circle><circle cx="159" cy="519" r="2"></circle><circle cx="170" cy="520" r="2"></circle><circle cx="175" cy="519" r="2"></circle><circle cx="185" cy="508" r="2"></circle><circle cx="190" cy="518" r="2"></circle><circle cx="195" cy="521" r="2"></circle><circle cx="201" cy="509" r="2"></circle><circle cx="206" cy="520" r="2"></circle><circle cx="216" cy="521" r="2"></circle><circle cx="221" cy="521" r="2"></circle><circle cx="226" cy="521" r="2"></circle><circle cx="231" cy="521" r="2"></circle><circle cx="237" cy="521" r="2"></circle><circle cx="242" cy="521" r="2"></circle><circle cx="247" cy="521" r="2"></circle><circle cx="252" cy="518" r="2"></circle><circle cx="257" cy="521" r="2"></circle><circle cx="262" cy="514" r="2"></circle><circle cx="267" cy="521" r="2"></circle><circle cx="273" cy="521" r="2"></circle><circle cx="278" cy="521" r="2"></circle><circle cx="283" cy="521" r="2"></circle><circle cx="288" cy="521" r="2"></circle><circle cx="298" cy="521" r="2"></circle><circle cx="303" cy="521" r="2"></circle><circle cx="309" cy="521" r="2"></circle><circle cx="314" cy="520" r="2"></circle><circle cx="319" cy="521" r="2"></circle><circle cx="329" cy="520" r="2"></circle><circle cx="334" cy="521" r="2"></circle><circle cx="339" cy="514" r="2"></circle><circle cx="345" cy="520" r="2"></circle><circle cx="350" cy="520" r="2"></circle><circle cx="355" cy="519" r="2"></circle><circle cx="360" cy="520" r="2"></circle><circle cx="365" cy="521" r="2"></circle><circle cx="370" cy="520" r="2"></circle><circle cx="375" cy="520" r="2"></circle><circle cx="381" cy="521" r="2"></circle><circle cx="386" cy="520" r="2"></circle><circle cx="391" cy="519" r="2"></circle><circle cx="396" cy="520" r="2"></circle><circle cx="401" cy="521" r="2"></circle><circle cx="406" cy="517" r="2"></circle><circle cx="411" cy="516" r="2"></circle><circle cx="417" cy="441" r="2"></circle><circle cx="422" cy="513" r="2"></circle><circle cx="427" cy="516" r="2"></circle><circle cx="432" cy="503" r="2"></circle><circle cx="437" cy="513" r="2"></circle><circle cx="442" cy="490" r="2"></circle><circle cx="447" cy="513" r="2"></circle><circle cx="453" cy="379" r="2"></circle><circle cx="458" cy="513" r="2"></circle><circle cx="463" cy="492" r="2"></circle><circle cx="468" cy="495" r="2"></circle><circle cx="473" cy="505" r="2"></circle><circle cx="478" cy="503" r="2"></circle><circle cx="483" cy="485" r="2"></circle><circle cx="489" cy="481" r="2"></circle><circle cx="494" cy="472" r="2"></circle><circle cx="499" cy="500" r="2"></circle><circle cx="504" cy="423" r="2"></circle><circle cx="509" cy="452" r="2"></circle><circle cx="514" cy="479" r="2"></circle><circle cx="519" cy="503" r="2"></circle><circle cx="525" cy="500" r="2"></circle><circle cx="530" cy="278" r="2"></circle><circle cx="535" cy="387" r="2"></circle><circle cx="540" cy="409" r="2"></circle><circle cx="545" cy="466" r="2"></circle><circle cx="550" cy="335" r="2"></circle><circle cx="555" cy="476" r="2"></circle><circle cx="561" cy="409" r="2"></circle><circle cx="566" cy="343" r="2"></circle><circle cx="571" cy="376" r="2"></circle><circle cx="576" cy="378" r="2"></circle><circle cx="581" cy="475" r="2"></circle><circle cx="586" cy="298" r="2"></circle><circle cx="591" cy="338" r="2"></circle><circle cx="597" cy="408" r="2"></circle><circle cx="602" cy="450" r="2"></circle><circle cx="607" cy="93" r="2"></circle><circle cx="612" cy="355" r="2"></circle><circle cx="617" cy="416" r="2"></circle><circle cx="622" cy="417" r="2"></circle><circle cx="627" cy="439" r="2"></circle><circle cx="633" cy="383" r="2"></circle><circle cx="638" cy="377" r="2"></circle><circle cx="643" cy="390" r="2"></circle><circle cx="648" cy="352" r="2"></circle><circle cx="653" cy="383" r="2"></circle><circle cx="658" cy="448" r="2"></circle><circle cx="663" cy="458" r="2"></circle><circle cx="669" cy="429" r="2"></circle><circle cx="674" cy="239" r="2"></circle><circle cx="679" cy="390" r="2"></circle><circle cx="684" cy="461" r="2"></circle></g></g></g></g></g><g style="fill: #777;" class="SourcesFooter"><g style="fill: #777;" class="clickable"><text font-size="12.60" x="15.0" y="567.0"><tspan x="15" y="566.98">Source: EMDAT (2017): OFDA/CRED International Disaster Database, Université catholique de Louvain – Brussels – Belgium</tspan></text></g><text font-size="12.60" x="15.0" y="582.5"><tspan x="15" y="582.48"><a target='_blank' style='fill: #777;' href='https://ourworldindata.org/natural-catastrophes/'>OurWorldInData.org/natural-catastrophes/</a> • <a style="fill: #777;" href="http://creativecommons.org/licenses/by-sa/4.0/deed.en_US" target="_blank">CC BY-SA</a></tspan></text></g></g></svg>
